X: 27469
T: Molly Myers'
R: jig
M: 6/8
K: Gmajor
|:dBG ~B3|dBG ~A3|GBd ~e3|AB/c/d ~e3|
dBG ~B3|dBG ~A3|GBd ~e3|1 GAG Gge:|2 GAG G2A||
|:~B3 ded|~G3 BAG|~B3 dBd|ecA AGA|
~B3 ded|~G3 BAG|e/f/ge dBd|1 GAG G2A:|2 GAG Gge||

